X:101
T:Crazy Creek
C:David Grisman
N:From the album "Something Bluegrass" Bill Keith Transcribed by David Peters Masters of the Mandolin 
R:bluegrass
L:1/8
Q:1/4=219
M:4/4
K:C
"A"A,B, ^CE "D"DE ^FD | "A"E^F AB "D"AB dA | "A"^cB Ac "D"cA BA | "C"Bc cA cB AG | 
zE GE DE DC | A,G, CE DE Gc | Ac dg eg ae | "Am"ag eg ae ag | "E"ed e2 ee e2 | 
"A"B^c cc cc cc | "A"^cA Bc "D"dA dA | "A"^cA Bc "D"dA dA | "A"^cB Ac "D"BD G=c | 
"C"Ac AG ED G/E/D | CE DC A,G, CE | DE Gc Ac dg | eg ag ag eg | "Am"ag ag ed e2 | 
"E"ee e2 e2 d2 | "A"^cc cc cc c2 | "F"z2 FE DG ED | AE DG GD FD | "C"ED ED EG EG, | 
CE DC A,G, CF | "F"DF Gc Ac df | ef ec cA cA | "C"Ac2A cB AG | "E"ED EG ^GB EG | 
"A"AB ^cA "D"Bc dA | "A"B^c2A "D"Bc dA | "A"B^c2A "D"cB AB | "C"cB AG ED G/E/D | 
CE DC A,G, CE | DE GE DA ED | GE DE DE DC | "Am"A,G, A,C A,3C | "E"DE DE DE DE | 
"A"DC A,G, A,4 | 


